X:33
T:Monie Musk
S:Petrie's Second Collection of Strathspey Reels and Country Dances &c.
Z:Steve Wyrick , 6/5/04
N:Petrie's Second Collection, page 11
L:1/8
M:C
R:Strathspey
K:A
f|e<Ac>A e>Ad<f|e<Ac>A (B/c/B) d>f|e<Ac>A  c<(ee>a)|fdBe   cAA   :|
g|a<ee>a c<ae>g|a<ec>a c>aG>g     |a<e f>a e>ac<a  |f>dB<e c<(AAg)|
  a<ee>a c<ae<g|a<ec>a c>aB>g     |a<ef<a  eada    |caBa   cAA   |]
